X: 20841
T: Johnny's Wedding
R: reel
M: 4/4
K: Edorian
|:EF|GEBE GEBE|FD~D2 GDFD|GEBE GEBE|AFDF E2EF|
GEBE GEBE|FD~D2 GDFD|GFEF GABc|dBAF E2:|
|:ef|gefd edBA|dBAG FD~D2|gefd edBA|B/c/d ef e2 ef|
g/f/e fd edBA|dBAG FD~D2|GFEF GABc|dBAF E2:|

